public/logos/EI.svg

<?xml version="1.0" encoding="UTF-8"?>
<svg xmlns="http://www.w3.org/2000/svg" xmlns:xlink="http://www.w3.org/1999/xlink" width="176pt" height="32.92pt" viewBox="0 0 176 32.92" version="1.1">
<defs>
<clipPath id="clip1">
  <path d="M 87 8 L 103 8 L 103 32.921875 L 87 32.921875 Z M 87 8 "/>
</clipPath>
</defs>
<g id="surface1">
<path style=" stroke:none;fill-rule:nonzero;fill:rgb(45.703125%,78.726196%,17.1875%);fill-opacity:1;" d="M 170.96875 1.988281 C 170.78125 0.160156 168.832031 -0.507812 166.683594 0.410156 C 165.664062 0.84375 164.769531 1.578125 164.140625 2.410156 C 164.238281 1.578125 164.003906 0.84375 163.40625 0.410156 C 162.226562 -0.445312 160.078125 0.1875 158.613281 1.777344 C 158.105469 2.335938 156.4375 4.347656 156.351562 7.300781 C 156.316406 8.730469 156.949219 11.898438 159.035156 14.082031 C 164.597656 11.984375 167.589844 8.765625 168.734375 7.4375 C 170.050781 5.898438 170.609375 4.546875 170.84375 3.550781 C 171.019531 2.769531 170.992188 2.210938 170.96875 1.988281 Z M 156.9375 15.300781 C 156.179688 16.566406 154.105469 18.601562 152.464844 19.65625 C 149.050781 21.84375 146.59375 21.992188 145.363281 21.210938 C 145.214844 21.125 145.089844 21.011719 144.976562 20.898438 C 144.019531 19.894531 144.183594 18.105469 145.300781 16.640625 C 145.847656 15.921875 146.554688 15.410156 147.238281 15.175781 C 146.703125 14.925781 146.34375 14.40625 146.269531 13.671875 C 146.121094 12.207031 147.226562 10.28125 148.753906 9.5 C 150.09375 8.816406 152.988281 8.132812 155.109375 11.300781 C 155.941406 12.53125 156.6875 14.28125 156.9375 15.300781 Z M 175.8125 17.3125 C 175.179688 19.347656 173.066406 21.261719 170.535156 21.65625 C 170.941406 22.289062 171.128906 23.074219 171.03125 23.941406 C 170.757812 26.300781 168.496094 28.203125 166.074219 28.226562 C 164.4375 28.238281 162.214844 27.53125 160.648438 25.058594 C 159.246094 22.863281 159.046875 19.371094 159.144531 18.316406 C 157.433594 20.066406 156.363281 21.769531 155.855469 22.949219 C 154.714844 25.617188 154.277344 28.871094 154.304688 30.398438 C 154.304688 30.398438 154.09375 30.597656 153.894531 30.636719 C 153.261719 30.523438 152.714844 30.289062 152.304688 29.925781 C 151.808594 29.480469 151.695312 29.058594 151.695312 29.058594 C 152.453125 25.269531 153.65625 22.910156 155.460938 20.214844 C 157.878906 16.578125 161.617188 14.332031 166.050781 12.976562 C 169.253906 11.996094 172.582031 11.785156 174.867188 13.722656 C 176.097656 14.742188 176.171875 16.207031 175.8125 17.3125 "/>
<path style=" stroke:none;fill-rule:nonzero;fill:rgb(25.083923%,71.377563%,23.649597%);fill-opacity:1;" d="M 168.734375 7.4375 C 170.050781 5.898438 170.609375 4.546875 170.84375 3.550781 C 170.855469 3.503906 170.867188 3.453125 170.882812 3.390625 C 170.609375 4.496094 168.273438 7.351562 165.046875 9.785156 C 161.691406 12.304688 159.78125 13.574219 159.046875 14.070312 C 164.597656 11.984375 167.589844 8.765625 168.734375 7.4375 "/>
<path style=" stroke:none;fill-rule:nonzero;fill:rgb(25.083923%,71.377563%,23.649597%);fill-opacity:1;" d="M 152.464844 19.644531 C 154.105469 18.589844 156.179688 16.554688 156.9375 15.285156 C 155.472656 16.675781 153.3125 18.75 149.597656 20.390625 C 147.761719 21.171875 145.960938 21.472656 145.363281 21.183594 C 146.59375 21.980469 149.050781 21.832031 152.464844 19.644531 "/>
<path style=" stroke:none;fill-rule:nonzero;fill:rgb(25.083923%,71.377563%,23.649597%);fill-opacity:1;" d="M 175.8125 17.3125 C 175.898438 17.039062 175.960938 16.753906 175.984375 16.453125 C 175.8125 17.632812 175.015625 19.0625 173.75 19.84375 C 172.632812 20.539062 171.339844 21 169.875 20.875 C 170.109375 21.097656 170.296875 21.285156 170.535156 21.644531 C 173.066406 21.261719 175.179688 19.347656 175.8125 17.3125 "/>
<path style=" stroke:none;fill-rule:nonzero;fill:rgb(94.389343%,93.711853%,11.31897%);fill-opacity:1;" d="M 159.492188 16.070312 C 159.480469 16.082031 159.46875 16.082031 159.46875 16.09375 C 159.46875 16.082031 159.480469 16.070312 159.492188 16.070312 "/>
<path style=" stroke:none;fill-rule:nonzero;fill:rgb(25.083923%,71.377563%,23.649597%);fill-opacity:1;" d="M 159.46875 16.082031 C 155.484375 18.9375 154.128906 24.078125 153.90625 30.621094 C 154.105469 30.585938 154.316406 30.386719 154.316406 30.386719 C 154.289062 28.859375 154.726562 25.617188 155.867188 22.9375 C 156.378906 21.757812 157.445312 20.054688 159.160156 18.304688 C 159.28125 17.136719 159.421875 16.453125 159.507812 16.070312 C 159.480469 16.070312 159.46875 16.082031 159.46875 16.082031 "/>
<g clip-path="url(#clip1)" clip-rule="nonzero">
<path style=" stroke:none;fill-rule:nonzero;fill:rgb(14.205933%,38.044739%,44.798279%);fill-opacity:1;" d="M 98.996094 20.277344 C 98.511719 21.085938 97.652344 21.878906 96.585938 22.117188 C 96.585938 22.117188 94.574219 21.546875 93.269531 21.097656 C 91.507812 20.488281 90.6875 19.347656 90.6875 17.496094 C 90.6875 14.566406 93.035156 13.226562 95.21875 13.226562 C 97.394531 13.226562 99.726562 14.589844 99.726562 17.484375 C 99.726562 18.664062 99.441406 19.535156 98.996094 20.277344 Z M 99.453125 22.9375 C 101.765625 21.769531 102.597656 19.398438 102.597656 17.496094 C 102.597656 15.375 101.949219 13.699219 100.695312 12.46875 C 100.585938 12.355469 100.472656 12.257812 100.347656 12.15625 L 102.335938 8.84375 L 99.394531 8.84375 L 98.125 10.964844 C 97.15625 10.644531 96.140625 10.492188 95.207031 10.492188 C 93.355469 10.492188 91.507812 11.152344 90.140625 12.304688 C 89.058594 13.226562 87.769531 14.863281 87.769531 17.496094 C 87.769531 22.066406 91.210938 23.183594 94.535156 24.277344 L 96.386719 24.859375 C 98.359375 25.445312 99.554688 25.804688 99.554688 27.355469 C 99.554688 28.066406 99.304688 28.671875 98.808594 29.132812 C 98.039062 29.867188 96.683594 30.261719 95.195312 30.175781 C 93.890625 30.101562 91.121094 29.839844 90.773438 26.996094 L 87.917969 26.996094 C 87.917969 30.621094 91.160156 32.921875 95.183594 32.921875 C 97.765625 32.921875 99.675781 32.1875 100.957031 30.945312 C 101.964844 29.976562 102.496094 28.722656 102.496094 27.320312 C 102.519531 25.332031 101.441406 23.78125 99.453125 22.9375 "/>
</g>
<path style=" stroke:none;fill-rule:nonzero;fill:rgb(14.205933%,38.044739%,44.798279%);fill-opacity:1;" d="M 65.9375 10.964844 L 68.867188 10.964844 L 68.867188 25.445312 L 65.9375 25.445312 L 65.9375 10.964844 "/>
<path style=" stroke:none;fill-rule:nonzero;fill:rgb(14.205933%,38.044739%,44.798279%);fill-opacity:1;" d="M 65.765625 7.351562 C 65.765625 6.433594 66.371094 5.773438 67.417969 5.773438 C 68.433594 5.773438 69.042969 6.433594 69.042969 7.351562 C 69.042969 8.320312 68.433594 8.980469 67.417969 8.980469 C 66.359375 8.964844 65.765625 8.320312 65.765625 7.351562 "/>
<path style=" stroke:none;fill-rule:nonzero;fill:rgb(14.205933%,38.044739%,44.798279%);fill-opacity:1;" d="M 6.246094 18.105469 L 9.511719 10.457031 L 12.777344 18.105469 Z M 11.050781 6.71875 L 8.007812 6.71875 L 0 25.445312 L 3.15625 25.445312 L 5.191406 20.6875 L 13.871094 20.6875 L 15.90625 25.445312 L 19.0625 25.445312 L 11.050781 6.71875 "/>
<path style=" stroke:none;fill-rule:nonzero;fill:rgb(14.205933%,38.044739%,44.798279%);fill-opacity:1;" d="M 54.5625 6.71875 L 51.484375 6.71875 L 51.484375 25.445312 L 64.152344 25.445312 L 64.152344 22.863281 L 54.5625 22.863281 L 54.5625 6.71875 "/>
<path style=" stroke:none;fill-rule:nonzero;fill:rgb(14.205933%,38.044739%,44.798279%);fill-opacity:1;" d="M 123.246094 11.214844 C 121.683594 11.910156 120.824219 13.164062 120.765625 14.617188 C 120.601562 18.007812 123.195312 18.800781 126.675781 19.285156 C 129.441406 19.671875 131.03125 20.082031 130.957031 21.472656 C 130.933594 21.894531 130.585938 22.425781 130.074219 22.675781 C 128.214844 23.605469 123.480469 23.109375 121.261719 21.730469 L 120.652344 24.203125 C 121.992188 25.070312 124.003906 25.582031 125.917969 25.667969 C 127.988281 25.765625 130.089844 25.617188 131.605469 24.898438 C 133.082031 24.191406 133.851562 22.875 133.914062 21.472656 C 134.0625 18.144531 130.957031 17.421875 128.054688 16.914062 C 124.75 16.34375 123.546875 16.007812 123.632812 14.578125 C 123.667969 13.910156 124.289062 13.472656 124.785156 13.324219 C 126.585938 12.765625 130.375 13.136719 132.597656 14.355469 L 133.179688 11.859375 C 130.289062 10.40625 125.902344 10.035156 123.246094 11.214844 "/>
<path style=" stroke:none;fill-rule:nonzero;fill:rgb(14.205933%,38.044739%,44.798279%);fill-opacity:1;" d="M 78.605469 10.703125 C 75.390625 10.703125 73.226562 11.164062 72.222656 11.449219 L 72.109375 11.488281 L 72.109375 25.445312 L 75.078125 25.445312 L 75.078125 13.535156 C 76.085938 13.300781 76.878906 13.226562 78.457031 13.226562 C 80.878906 13.226562 82.503906 13.835938 82.503906 16.800781 L 82.503906 25.433594 L 85.433594 25.433594 L 85.433594 16.9375 C 85.421875 12.816406 83.125 10.703125 78.605469 10.703125 "/>
<path style=" stroke:none;fill-rule:nonzero;fill:rgb(14.205933%,38.044739%,44.798279%);fill-opacity:1;" d="M 115.089844 22.898438 C 114.132812 23.109375 113.261719 23.183594 111.710938 23.183594 C 109.214844 23.183594 107.660156 22.589844 107.660156 19.632812 L 107.660156 10.976562 L 104.730469 10.976562 L 104.730469 19.496094 C 104.730469 23.621094 107.027344 25.71875 111.550781 25.71875 C 114.578125 25.71875 116.46875 25.34375 117.921875 24.972656 L 118.042969 24.949219 L 118.042969 10.976562 L 115.074219 10.976562 L 115.074219 22.898438 L 115.089844 22.898438 "/>
<path style=" stroke:none;fill-rule:nonzero;fill:rgb(14.205933%,38.044739%,44.798279%);fill-opacity:1;" d="M 42.628906 10.703125 C 40.695312 10.703125 39.078125 11.078125 38 11.847656 C 36.382812 12.988281 35.75 14.714844 35.75 16.949219 L 35.75 25.445312 L 38.679688 25.445312 L 38.679688 16.8125 C 38.679688 15.757812 38.894531 15 39.265625 14.46875 C 39.933594 13.484375 41.164062 13.238281 42.730469 13.238281 C 43.460938 13.238281 44.292969 13.324219 45.113281 13.484375 L 45.699219 11.015625 C 44.777344 10.828125 43.761719 10.703125 42.628906 10.703125 "/>
<path style=" stroke:none;fill-rule:nonzero;fill:rgb(14.205933%,38.044739%,44.798279%);fill-opacity:1;" d="M 26.277344 13.238281 C 28.027344 13.238281 30.101562 13.871094 30.25 16.789062 L 22.339844 16.789062 C 22.453125 14.46875 23.804688 13.238281 26.277344 13.238281 Z M 33.207031 16.789062 C 32.855469 12.804688 30.484375 10.71875 26.277344 10.71875 C 21.71875 10.71875 19.296875 13.175781 19.296875 17.84375 L 19.296875 18.578125 C 19.296875 23.246094 21.96875 25.707031 27.007812 25.707031 C 29.058594 25.707031 31.007812 25.40625 32.671875 24.835938 L 32.050781 22.378906 L 31.914062 22.425781 C 30.957031 22.789062 29.167969 23.183594 27.007812 23.183594 C 24.898438 23.183594 22.390625 22.515625 22.328125 19.382812 L 33.242188 19.382812 L 33.242188 17.855469 C 33.242188 17.472656 33.230469 17.125 33.207031 16.789062 "/>
</g>
</svg>

<svg xmlns="http://www.w3.org/2000/svg" width="176pt" height="43.893" viewBox="0 0 176 32.92"><defs><clipPath id="a"><path d="M87 8h16v24.922H87Zm0 0"/></clipPath></defs><path d="M170.969 1.988C170.78.16 168.832-.508 166.684.41a6.4 6.4 0 0 0-2.543 2c.097-.832-.137-1.566-.735-2-1.18-.855-3.328-.222-4.793 1.367-.508.559-2.175 2.57-2.261 5.524-.036 1.43.597 4.597 2.683 6.781 5.563-2.098 8.555-5.316 9.7-6.645 1.316-1.539 1.874-2.89 2.109-3.886.176-.781.148-1.34.125-1.563m-14.031 13.313c-.758 1.265-2.833 3.3-4.473 4.355-3.414 2.188-5.871 2.336-7.102 1.555a2 2 0 0 1-.386-.313c-.957-1.003-.793-2.793.324-4.257.547-.72 1.254-1.23 1.937-1.465-.535-.25-.894-.77-.968-1.504-.149-1.465.957-3.39 2.484-4.172 1.34-.684 4.234-1.367 6.355 1.8.832 1.231 1.578 2.981 1.828 4m18.875 2.011c-.633 2.036-2.747 3.95-5.278 4.344.406.633.594 1.418.496 2.285-.273 2.36-2.535 4.262-4.957 4.286-1.637.011-3.86-.696-5.426-3.168-1.402-2.196-1.601-5.688-1.503-6.743-1.711 1.75-2.782 3.454-3.29 4.633-1.14 2.668-1.578 5.922-1.55 7.45 0 0-.211.199-.41.238-.633-.114-1.18-.348-1.59-.711-.496-.446-.61-.867-.61-.867.758-3.79 1.961-6.149 3.766-8.844 2.418-3.637 6.156-5.883 10.59-7.238 3.203-.98 6.531-1.192 8.816.746 1.23 1.02 1.305 2.484.946 3.59" style="stroke:none;fill-rule:nonzero;fill:#75c92c;fill-opacity:1"/><path d="M168.734 7.438c1.317-1.54 1.875-2.891 2.11-3.887l.039-.16c-.274 1.105-2.61 3.96-5.836 6.394-3.356 2.52-5.266 3.79-6 4.285 5.55-2.086 8.543-5.304 9.687-6.632M152.465 19.645c1.64-1.055 3.715-3.09 4.472-4.36-1.464 1.39-3.625 3.465-7.34 5.106-1.835.78-3.636 1.082-4.234.793 1.23.796 3.688.648 7.102-1.54M175.813 17.313c.085-.274.148-.56.171-.86-.172 1.18-.968 2.61-2.234 3.39-1.117.696-2.41 1.157-3.875 1.032.234.223.422.41.66.77 2.531-.383 4.645-2.297 5.278-4.332" style="stroke:none;fill-rule:nonzero;fill:#40b63c;fill-opacity:1"/><path d="M159.492 16.07c-.012.012-.023.012-.023.024 0-.012.011-.024.023-.024" style="stroke:none;fill-rule:nonzero;fill:#f1ef1d;fill-opacity:1"/><path d="M159.469 16.082c-3.985 2.855-5.34 7.996-5.563 14.54.2-.036.41-.235.41-.235-.027-1.528.41-4.77 1.551-7.45.512-1.18 1.578-2.882 3.293-4.632.121-1.168.262-1.852.348-2.235-.028 0-.04.012-.04.012" style="stroke:none;fill-rule:nonzero;fill:#40b63c;fill-opacity:1"/><g clip-path="url(#a)"><path d="M98.996 20.277c-.484.809-1.344 1.602-2.41 1.84 0 0-2.012-.57-3.316-1.02-1.762-.609-2.582-1.75-2.582-3.6 0-2.93 2.347-4.27 4.53-4.27 2.177 0 4.509 1.363 4.509 4.257 0 1.18-.286 2.051-.73 2.793m.457 2.66c2.313-1.167 3.145-3.539 3.145-5.44 0-2.122-.649-3.798-1.903-5.028a4 4 0 0 0-.347-.313l1.988-3.312h-2.941l-1.27 2.12a9.4 9.4 0 0 0-2.918-.472c-1.852 0-3.7.66-5.066 1.813-1.082.922-2.371 2.558-2.371 5.191 0 4.57 3.44 5.688 6.765 6.781l1.852.582c1.972.586 3.168.946 3.168 2.496 0 .711-.25 1.317-.746 1.778-.77.734-2.125 1.129-3.614 1.043-1.304-.074-4.074-.336-4.422-3.18h-2.855c0 3.625 3.242 5.926 7.266 5.926 2.582 0 4.492-.734 5.773-1.977a4.92 4.92 0 0 0 1.54-3.625c.023-1.988-1.056-3.539-3.044-4.382" style="stroke:none;fill-rule:nonzero;fill:#246172;fill-opacity:1"/></g><path d="M65.938 10.965h2.93v14.48h-2.93zM65.766 7.352c0-.918.605-1.579 1.652-1.579 1.016 0 1.625.66 1.625 1.579 0 .968-.61 1.628-1.625 1.628-1.059-.015-1.652-.66-1.652-1.628M6.246 18.105l3.266-7.648 3.265 7.648ZM11.051 6.72H8.008L0 25.445h3.156l2.035-4.757h8.68l2.035 4.757h3.156zM54.563 6.719h-3.079v18.726h12.668v-2.582h-9.59zM123.246 11.215c-1.562.695-2.422 1.95-2.48 3.402-.164 3.39 2.43 4.184 5.91 4.668 2.765.387 4.355.797 4.281 2.188-.023.422-.371.953-.883 1.203-1.86.93-6.594.433-8.812-.946l-.61 2.473c1.34.867 3.352 1.379 5.266 1.465 2.07.098 4.172-.05 5.687-.77 1.477-.707 2.247-2.023 2.31-3.425.148-3.328-2.958-4.051-5.86-4.559-3.305-.57-4.508-.906-4.422-2.336.035-.668.656-1.105 1.152-1.254 1.8-.558 5.59-.187 7.813 1.031l.582-2.496c-2.89-1.453-7.278-1.824-9.934-.644M78.605 10.703c-3.214 0-5.378.461-6.382.746l-.114.04v13.956h2.97v-11.91c1.007-.234 1.8-.308 3.378-.308 2.422 0 4.047.609 4.047 3.574v8.633h2.93v-8.497c-.012-4.12-2.309-6.234-6.829-6.234M115.09 22.898c-.957.211-1.828.286-3.38.286-2.495 0-4.05-.594-4.05-3.551v-8.656h-2.93v8.52c0 4.124 2.297 6.222 6.82 6.222 3.028 0 4.919-.375 6.372-.746l.121-.024V10.977h-2.969v11.921zM42.629 10.703c-1.934 0-3.55.375-4.629 1.145-1.617 1.14-2.25 2.867-2.25 5.101v8.496h2.93v-8.632c0-1.055.215-1.813.586-2.344.668-.985 1.898-1.23 3.464-1.23.73 0 1.563.085 2.383.245l.586-2.468a15.3 15.3 0 0 0-3.07-.313M26.277 13.238c1.75 0 3.825.633 3.973 3.551h-7.91c.113-2.32 1.465-3.55 3.937-3.55m6.93 3.551c-.352-3.984-2.723-6.07-6.93-6.07-4.558 0-6.98 2.457-6.98 7.125v.734c0 4.668 2.672 7.129 7.71 7.129 2.052 0 4-.3 5.665-.871l-.621-2.457-.137.047c-.957.363-2.746.758-4.906.758-2.11 0-4.617-.668-4.68-3.801h10.914v-1.528c0-.382-.012-.73-.035-1.066" style="stroke:none;fill-rule:nonzero;fill:#246172;fill-opacity:1"/></svg>
